X:2718
T:Christ ist erstanden
C:Hans Judenk\"unig
O:Germany
R:Hymn
Z:Transcribed by Frank Nordberg - http://www.musicaviva.com
F:http://abc.musicaviva.com/tunes/judenkunig-hans/christ-judenkunig/christ-judenkunig-lte.abc
M:none
L:1/1
Q:1/1=84
K:Ddor
V:1
DAEGFED2|
w:Christ der ist er-stan--den
V:2
D,DCCDA,D,2|
%
V:1
ABcBABAz/|
w:von des To-des-ban--den,
V:2
DG,CGFEA,z/|
%
V:1
A/dBcAGFE2|
w:des soll'n wir al-len froh_ sein,
V:2
A,/DGCFCDA,2|
%
V:1
DAEGFED2|
w:Christ soll un-ser Trost_ sein.
V:2
D,DCCDA,D,2|
%
V:1
CDE2FAG/F/ED2|]
w:Ky-ri-e e--lei---son.
V:2
A,_B,A,2 D,F,C/D/A,D,2|]
W:
W:Christ der ist erstanden
W:von des Todesbanden,
W:des soll'n wir allen froh sein,
W:Christ soll unser Trost sein.
W:  Kyrie eleison.
W:
W:
W:  From Musica Viva - http://www.musicaviva.com
W:  the Internet center for free sheet music downloads.

